build/finance/CashboxSolid.svg

<svg xmlns="http://www.w3.org/2000/svg" fill="none" viewBox="0 0 24 24" focusable="false"><path d="M0 0H24V24H0z"/><path fill="#74767B" fill-rule="evenodd" d="M10.9993 4.3448C10.9993 3.62683 11.5814 3.0448 12.2993 3.0448L17.7007 3.0448C18.4186 3.0448 19.0007 3.62683 19.0007 4.3448L19.0007 5.6655C19.0007 6.38347 18.4186 6.9655 17.7007 6.9655L15.65 6.9655L15.65 8.63524L16.8874 8.63524C17.5279 8.63524 18.0729 9.10169 18.1718 9.73445L18.7654 13.5312C18.8886 14.3196 18.279 15.032 17.481 15.032L6.51901 15.032C5.72098 15.032 5.11135 14.3196 5.23461 13.5312L5.82815 9.73445C5.92707 9.10169 6.4721 8.63524 7.11255 8.63524L14.35 8.63524L14.35 6.9655L12.2993 6.9655C11.5814 6.9655 10.9993 6.38347 10.9993 5.6655L10.9993 4.3448ZM7.01944 11.6561C7.01944 11.2971 7.31045 11.0061 7.66944 11.0061L10.7843 11.0061C11.1433 11.0061 11.4343 11.2971 11.4343 11.6561C11.4343 12.0151 11.1433 12.3061 10.7843 12.3061L7.66944 12.3061C7.31045 12.3061 7.01944 12.0151 7.01944 11.6561ZM5.28715 16.3701C4.56918 16.3701 3.98715 16.9521 3.98715 17.6701L3.98715 18.7201C3.98715 19.438 4.56918 20.0201 5.28715 20.0201L18.7128 20.0201C19.4308 20.0201 20.0128 19.438 20.0128 18.7201L20.0128 17.6701C20.0128 16.9521 19.4308 16.3701 18.7128 16.3701L5.28715 16.3701Z"/></svg>

<svg xmlns="http://www.w3.org/2000/svg" fill="none" viewBox="0 0 24 24" focusable="false"><path fill="#74767B" fill-rule="evenodd" d="M10.99 4.34c0-.72.59-1.3 1.3-1.3h5.41c.71 0 1.3.58 1.3 1.3v1.32c0 .72-.59 1.3-1.3 1.3h-2.05v1.67h1.23c.64 0 1.19.47 1.29 1.1l.59 3.8c.12.78-.49 1.5-1.28 1.5H6.51c-.79 0-1.4-.72-1.28-1.5l.59-3.8c.1-.63.65-1.1 1.29-1.1h7.24V6.96h-2.06c-.71 0-1.3-.58-1.3-1.3zm-3.98 7.31c0-.36.3-.65.65-.65h3.12c.36 0 .65.29.65.65s-.29.65-.65.65H7.66c-.35 0-.65-.29-.65-.65m-1.73 4.72c-.72 0-1.3.58-1.3 1.3v1.04c0 .72.58 1.31 1.3 1.31h13.43c.72 0 1.3-.59 1.3-1.31v-1.04c0-.72-.58-1.3-1.3-1.3z"/></svg>
